packages/bezier-icons/icons/folder-off.svg

<svg width="24" height="24" viewBox="0 0 24 24" fill="none" xmlns="http://www.w3.org/2000/svg">
<path fill-rule="evenodd" clip-rule="evenodd" d="M1.70708 2.70293C1.31655 3.09345 1.31655 3.72662 1.70708 4.11714L18.6776 21.0877C19.0682 21.4782 19.7013 21.4782 20.0919 21.0877C20.4824 20.6972 20.4824 20.064 20.0919 19.6735L19.3929 18.9745C20.8641 18.7821 22 17.5237 22 16V8.00003C22 6.34318 20.6569 5.00003 19 5.00003H12.8284C12.5632 5.00003 12.3089 4.89467 12.1213 4.70714L11.2929 3.87871C10.7303 3.3161 9.96722 3.00003 9.17157 3.00003H5C4.53797 3.00003 4.10033 3.10448 3.70941 3.29105L3.12129 2.70293C2.73077 2.3124 2.0976 2.3124 1.70708 2.70293ZM5.41839 5.00003L7.41839 7.00003H9.17157C9.43679 7.00003 9.69114 6.89467 9.87868 6.70714L10.5858 6.00003L9.87868 5.29292C9.69114 5.10539 9.43679 5.00003 9.17157 5.00003H5.41839ZM9.40899 8.99063L17.4184 17H19C19.5523 17 20 16.5523 20 16V8.00003C20 7.44775 19.5523 7.00003 19 7.00003H12.8284C12.5632 7.00003 12.3089 7.10539 12.1213 7.29292L11.2929 8.12135C10.7865 8.62773 10.1177 8.93439 9.40899 8.99063Z" fill="#313234"/>
<path d="M2 6.00003C2 5.9671 2.00053 5.93429 2.00158 5.90161L5.10001 9.00003H5C4.44772 9.00003 4 9.44775 4 10V16C4 16.5523 4.44772 17 5 17H13.1L15.1 19H5C3.34315 19 2 17.6569 2 16V6.00003Z" fill="#313234"/>
</svg>

<svg xmlns="http://www.w3.org/2000/svg" width="24" height="24" fill="none" viewBox="0 0 24 24"><path fill="#313234" fill-rule="evenodd" d="M1.707 2.703a1 1 0 0 0 0 1.414l16.97 16.97a1 1 0 0 0 1.415-1.413l-.7-.7A3 3 0 0 0 22 16V8a3 3 0 0 0-3-3h-6.172a1 1 0 0 1-.707-.293l-.828-.828A3 3 0 0 0 9.172 3H5c-.462 0-.9.104-1.29.291l-.589-.588a1 1 0 0 0-1.414 0M5.418 5l2 2h1.754a1 1 0 0 0 .707-.293L10.586 6l-.707-.707A1 1 0 0 0 9.172 5zM9.41 8.99l8.01 8.01H19a1 1 0 0 0 1-1V8a1 1 0 0 0-1-1h-6.172a1 1 0 0 0-.707.293l-.828.828a3 3 0 0 1-1.884.87" clip-rule="evenodd"/><path fill="#313234" d="M2 6q0-.05.002-.098L5.1 9H5a1 1 0 0 0-1 1v6a1 1 0 0 0 1 1h8.1l2 2H5a3 3 0 0 1-3-3z"/></svg>
